X:65
T:Last Minute Polka
M:2/4
L:1/8
C: G. Stobbe and P. Gitlitz 2002
B:Giblitz Fancy, Small World
D:Gordon's 2002 album "Small World".
K:Em
"Em"B,E GE|BE GE|"D"dE "Em"GE|"D"D/E/F/E/ DA,|!
"Em"B,E GE|BE GE|"D"F/G/A/F/ DF|1"G"GF "Em"E2:|2"G"GF "Em"EA|! 
|:"D"dA FA|de fe|dA "F#m"FA|"Em"BE "A"E^c|!
"D"dA FA|de fe|a/g/f/e/ d^c|1"Em"B2 A (3A/B/^c/:|2"G"B/A/G/F/ "D (B7 to top)"ED|]
